images/football_theme_dark.svg

<svg width="50" height="50" viewBox="0 0 50 50" fill="none" xmlns="http://www.w3.org/2000/svg">
<path d="M15.8745 2.16011C15.8745 1.83863 17.3929 1.23956 19.2479 0.829482C21.1028 0.418616 23.6927 0.0477557 25.0024 0.00384632C26.312 -0.040063 28.7448 0.297093 30.4084 0.753437C32.8714 1.42933 33.3881 1.90213 33.1865 3.29782C32.9825 4.71312 31.9292 5.27217 27.1502 6.50477L21.3607 7.99692L18.6176 5.37019C17.1088 3.92589 15.8745 2.4808 15.8745 2.16011Z" fill="white"/>
<path d="M4.06945 11.5214C5.42513 9.43494 7.65311 6.85606 9.02149 5.79048C10.3899 4.72489 11.7043 3.84903 11.9432 3.84433C12.1821 3.83963 13.7696 5.24396 15.4713 6.96583L18.5653 10.0959L17.1088 15.7869C16.3079 18.917 15.4348 21.7155 15.1681 22.0056C14.9022 22.2957 12.4893 22.9763 9.8065 23.5173L4.92983 24.5021L2.85027 22.2055C1.27393 20.4656 0.871513 19.3538 1.18742 17.6131C1.4168 16.3491 2.71376 13.6087 4.06945 11.5214Z" fill="white"/>
<path d="M40.734 10.753C38.4116 8.48696 36.5114 6.00374 36.5114 5.23454C36.5114 4.46534 37.0464 3.83572 37.6996 3.83572C38.3536 3.83572 40.2284 5.03774 41.8667 6.50714C43.5049 7.97653 45.4686 10.2324 46.2306 11.5214C47.5188 13.702 47.5228 13.8996 46.2853 14.3685C45.3551 14.7213 43.6899 13.6369 40.734 10.753Z" fill="white"/>
<path d="M21.8275 11.3481L26.9867 10.0199C29.8243 9.28988 32.515 8.65789 32.9666 8.61633C33.4182 8.57478 35.709 10.4629 38.0584 12.812L42.3286 17.0838L40.765 22.8093L39.2013 28.5347L33.0817 30.0809L26.9613 31.628L22.8291 27.5452L18.6962 23.4632L20.2622 17.4053L21.8275 11.3481Z" fill="white"/>
<path d="M43.9201 23.9705C44.8209 20.8749 45.9337 18.082 46.3925 17.7652C46.8513 17.4484 47.6347 17.1842 48.1339 17.1771C48.6332 17.1708 49.2579 17.7236 49.523 18.4058C49.7881 19.0879 50.0024 21.8221 50 24.4825C49.9976 27.1422 49.6119 30.6855 49.142 32.3564L48.2887 35.3932L45.2852 32.4968L42.2826 29.6003L43.9201 23.9705Z" fill="white"/>
<path d="M0.52861 30.5561C0.238106 29.1212 0 27.0653 0 25.9888C0 24.3367 0.186526 24.183 1.19059 25.0063C1.84541 25.5434 2.35577 26.9093 2.32561 28.0423C2.29466 29.1761 1.99702 30.7921 1.66286 31.6343C1.14932 32.9312 0.975478 32.7657 0.52861 30.5561Z" fill="white"/>
<path d="M5.95295 27.8251L9.52472 26.885C11.4892 26.3675 13.8227 25.9096 14.7109 25.8672C15.6777 25.821 18.0144 27.4801 20.5353 30.0018L24.7452 34.2124L23.3943 38.9687C22.6514 41.5852 21.5179 43.9249 20.8758 44.168C20.2337 44.4119 17.8636 44.8165 15.6086 45.0682C11.5329 45.5229 11.4876 45.5041 7.79757 41.735L4.08611 37.9439L5.01953 32.8849L5.95295 27.8251Z" fill="white"/>
<path d="M27.2812 37.5887C28.1043 35.1031 28.5995 34.7722 33.3365 33.5482C36.1741 32.8151 38.8696 32.1808 39.3267 32.1392C39.7839 32.0976 41.5143 33.4353 43.1724 35.1125C45.6297 37.5989 46.0385 38.4316 45.3861 39.6211C44.9455 40.424 43.5724 41.9867 42.3342 43.0938C41.096 44.2009 39.1902 45.6421 38.0989 46.2961C37.0075 46.95 34.993 47.865 33.623 48.3284C31.4442 49.0655 30.7672 48.9157 28.2344 47.135C25.6683 45.3316 25.3976 44.8259 25.862 42.6978C26.1501 41.3766 26.789 39.0777 27.2812 37.5887Z" fill="white"/>
<path d="M19.0494 48.515C19.0494 48.1512 19.8527 47.7302 20.8353 47.5796C21.8179 47.4283 23.4364 47.8039 24.4317 48.4147C25.4278 49.0263 26.0771 49.6896 25.8747 49.8896C25.6715 50.0895 24.0531 50.0103 22.2775 49.7139C20.5019 49.4175 19.0494 48.8781 19.0494 48.515Z" fill="white"/>
</svg>

<svg width="50" height="50" fill="none" xmlns="http://www.w3.org/2000/svg"><path d="M15.874 2.16c0-.321 1.519-.92 3.374-1.33 1.855-.411 4.445-.782 5.754-.826 1.31-.044 3.743.293 5.406.75 2.463.675 2.98 1.148 2.779 2.544-.204 1.415-1.258 1.974-6.037 3.207l-5.79 1.492-2.742-2.627c-1.51-1.444-2.743-2.89-2.743-3.21ZM4.07 11.521c1.355-2.086 3.583-4.665 4.951-5.73 1.369-1.066 2.683-1.942 2.922-1.947.24-.004 1.827 1.4 3.528 3.122l3.094 3.13-1.456 5.69c-.801 3.131-1.674 5.93-1.94 6.22-.267.29-2.68.97-5.363 1.511l-4.876.985-2.08-2.296c-1.576-1.74-1.978-2.852-1.663-4.593.23-1.264 1.527-4.004 2.882-6.092Zm36.664-.768c-2.322-2.266-4.223-4.75-4.223-5.518 0-.77.535-1.4 1.189-1.4s2.528 1.203 4.167 2.672c1.638 1.47 3.602 3.725 4.364 5.014 1.288 2.181 1.292 2.379.054 2.847-.93.353-2.595-.731-5.551-3.615Zm-18.906.595 5.159-1.328c2.837-.73 5.528-1.362 5.98-1.404.451-.041 2.742 1.847 5.091 4.196l4.27 4.272-1.563 5.725-1.564 5.726-6.12 1.546-6.12 1.547-4.132-4.083-4.133-4.082 1.566-6.058 1.566-6.057ZM43.92 23.97c.9-3.095 2.014-5.888 2.472-6.205.46-.317 1.243-.58 1.742-.588.5-.006 1.124.547 1.389 1.229.265.682.48 3.416.477 6.077-.002 2.66-.388 6.203-.858 7.873l-.853 3.037-3.004-2.896-3.002-2.897 1.637-5.63ZM.529 30.556C.239 29.121 0 27.066 0 25.99c0-1.652.187-1.806 1.19-.983.655.537 1.166 1.903 1.136 3.036-.031 1.134-.329 2.75-.663 3.592-.514 1.297-.688 1.132-1.134-1.078Zm5.424-2.731 3.572-.94c1.964-.518 4.298-.975 5.186-1.018.967-.046 3.303 1.613 5.824 4.135l4.21 4.21-1.35 4.757c-.744 2.616-1.877 4.956-2.52 5.199-.641.244-3.011.648-5.266.9-4.076.455-4.121.436-7.811-3.333l-3.712-3.791.934-5.06.933-5.059Zm21.328 9.764c.823-2.486 1.319-2.817 6.056-4.04 2.837-.734 5.533-1.368 5.99-1.41.457-.041 2.187 1.296 3.845 2.973 2.458 2.487 2.867 3.32 2.214 4.51-.44.802-1.814 2.365-3.052 3.472-1.238 1.107-3.144 2.548-4.235 3.202-1.091.654-3.106 1.569-4.476 2.032-2.179.737-2.856.588-5.389-1.193-2.566-1.803-2.836-2.31-2.372-4.437.288-1.321.927-3.62 1.42-5.11ZM19.05 48.515c0-.364.803-.785 1.785-.935.983-.152 2.601.224 3.597.835s1.645 1.275 1.443 1.475c-.203.2-1.822.12-3.598-.176-1.775-.297-3.228-.836-3.228-1.199Z" fill="#fff"/></svg>
